svg/design/flip_vertical_line.svg

<?xml version="1.0" encoding="UTF-8"?>
<svg width="24px" height="24px" viewBox="0 0 24 24" version="1.1" xmlns="http://www.w3.org/2000/svg" xmlns:xlink="http://www.w3.org/1999/xlink">
    <title>flip_vertical_line</title>
    <g id="页面-1" stroke="none" stroke-width="1" fill="none" fill-rule="evenodd">
        <g id="Design" transform="translate(-192.000000, 0.000000)">
            <g id="flip_vertical_line" transform="translate(192.000000, 0.000000)">
                 <path d="M24,0 L24,24 L0,24 L0,0 L24,0 Z M12.5934901,23.257841 L12.5819402,23.2595131 L12.5108777,23.2950439 L12.4918791,23.2987469 L12.4918791,23.2987469 L12.4767152,23.2950439 L12.4056548,23.2595131 C12.3958229,23.2563662 12.3870493,23.2590235 12.3821421,23.2649074 L12.3780323,23.275831 L12.360941,23.7031097 L12.3658947,23.7234994 L12.3769048,23.7357139 L12.4804777,23.8096931 L12.4953491,23.8136134 L12.4953491,23.8136134 L12.5071152,23.8096931 L12.6106902,23.7357139 L12.6232938,23.7196733 L12.6232938,23.7196733 L12.6266527,23.7031097 L12.609561,23.275831 C12.6075724,23.2657013 12.6010112,23.2592993 12.5934901,23.257841 L12.5934901,23.257841 Z M12.8583906,23.1452862 L12.8445485,23.1473072 L12.6598443,23.2396597 L12.6498822,23.2499052 L12.6498822,23.2499052 L12.6471943,23.2611114 L12.6650943,23.6906389 L12.6699349,23.7034178 L12.6699349,23.7034178 L12.678386,23.7104931 L12.8793402,23.8032389 C12.8914285,23.8068999 12.9022333,23.8029875 12.9078286,23.7952264 L12.9118235,23.7811639 L12.8776777,23.1665331 C12.8752882,23.1545897 12.8674102,23.1470016 12.8583906,23.1452862 L12.8583906,23.1452862 Z M12.1430473,23.1473072 C12.1332178,23.1423925 12.1221763,23.1452606 12.1156365,23.1525954 L12.1099173,23.1665331 L12.0757714,23.7811639 C12.0751323,23.7926639 12.0828099,23.8018602 12.0926481,23.8045676 L12.108256,23.8032389 L12.3092106,23.7104931 L12.3186497,23.7024347 L12.3186497,23.7024347 L12.3225043,23.6906389 L12.340401,23.2611114 L12.337245,23.2485176 L12.337245,23.2485176 L12.3277531,23.2396597 L12.1430473,23.1473072 Z" id="MingCute" fill-rule="nonzero"></path>
                <path d="M12,2 C12.5522,2 13,2.44772 13,3 L13,21 C13,21.5523 12.5522,22 12,22 C11.4477,22 11,21.5523 11,21 L11,3 C11,2.44772 11.4477,2 12,2 Z M7.86404,5.20735 C8.27923,4.04481 9.99996,4.34286 9.99996,5.57732 L9.99996,18.9 C9.99996,19.5075 9.50748,20 8.89996,20 L4.14186,20 C3.38117,20 2.8501,19.2464 3.10594,18.53 L7.86404,5.20735 Z M7.99996,10.7732 L5.41896,18 L7.99996,18 L7.99996,10.7732 Z M14,5.57732 C14,4.34286 15.7207,4.04481 16.1359,5.20735 L20.894,18.53 C21.1498,19.2464 20.6187,20 19.8581,20 L15.1,20 C14.4924,20 14,19.5075 14,18.9 L14,5.57732 Z M18.5809,18 L16,10.7732 L16,18 L18.5809,18 Z" id="形状" fill="#09244B"></path>
            </g>
        </g>
    </g>
</svg>

<svg xmlns="http://www.w3.org/2000/svg" width="24" height="24"><g fill="none" fill-rule="evenodd"><path d="M24 0v24H0V0h24ZM12.593 23.258l-.011.002-.071.035-.02.004-.014-.004-.071-.035c-.01-.004-.019-.001-.024.005l-.004.01-.017.428.005.02.01.013.104.074.015.004.012-.004.104-.074.012-.016.004-.017-.017-.427c-.002-.01-.009-.017-.017-.018Zm.265-.113-.013.002-.185.093-.01.01-.003.011.018.43.005.012.008.007.201.093c.012.004.023 0 .029-.008l.004-.014-.034-.614c-.003-.012-.01-.02-.02-.022Zm-.715.002a.023.023 0 0 0-.027.006l-.006.014-.034.614c0 .012.007.02.017.024l.015-.002.201-.093.01-.008.004-.011.017-.43-.003-.012-.01-.01-.184-.092Z"/><path fill="#09244B" d="M12 2a1 1 0 0 1 1 1v18a1 1 0 0 1-2 0V3a1 1 0 0 1 1-1ZM7.864 5.207C8.279 4.045 10 4.343 10 5.577V18.9A1.1 1.1 0 0 1 8.9 20H4.142a1.1 1.1 0 0 1-1.036-1.47L7.864 5.207ZM8 10.773 5.419 18H8v-7.227Zm6-5.196c0-1.234 1.72-1.532 2.136-.37l4.758 13.323A1.1 1.1 0 0 1 19.858 20H15.1a1.1 1.1 0 0 1-1.1-1.1V5.577ZM18.58 18 16 10.773V18h2.58Z"/></g></svg>
